flags/et.svg

<svg width="512" height="512" viewBox="0 0 512 512" fill="none" xmlns="http://www.w3.org/2000/svg">
<rect x="512" y="376" width="512" height="240" transform="rotate(-180 512 376)" fill="var(--flag-palette-yellow, #ffda44)"/>
<rect x="512" y="168" width="512" height="168" transform="rotate(-180 512 168)" fill="var(--flag-palette-green, #6da544)"/>
<rect x="512" y="512" width="512" height="168" transform="rotate(-180 512 512)" fill="var(--flag-palette-bright-red, #d80027)"/>
<path d="M327.967 156.947C273.262 117.201 196.695 129.328 156.95 184.033C117.205 238.738 129.332 315.304 184.036 355.05C238.741 394.795 315.308 382.668 355.053 327.963C394.798 273.259 382.671 196.692 327.967 156.947Z" fill="var(--flag-palette-blue, #0052b4)"/>
<path fill-rule="evenodd" clip-rule="evenodd" d="M275.354 229.361L256 169.793L251.38 184.009L255.997 198.217L256 198.208L266.124 229.367H255.115L252.262 238.148H256.003H268.972H278.205L278.203 238.142H296.01L308.096 229.361H275.354ZM251.38 212.424L246.764 198.217L236.645 229.361H174.012L186.105 238.147H201.043L201.035 238.142H233.798L230.397 248.609L237.866 254.036L243.028 238.148H243.03L245.883 229.367H245.875L251.38 212.424ZM224.683 266.176L198.19 246.928H213.129L227.541 257.399L227.544 257.39L235.013 262.816L235.011 262.821L248.528 272.641L241.059 278.068L232.154 271.598L222.03 302.756L222.042 302.747L217.425 316.955L205.328 325.744L224.683 266.176ZM248.528 283.495L255.998 278.068L255.999 278.069L269.518 268.246L272.371 277.027L263.464 283.499L289.969 302.756L289.964 302.74L302.05 311.521L306.671 325.744L256 288.929L229.511 308.174L234.127 293.967L248.535 283.499L248.528 283.495ZM279.84 271.6L276.987 262.82L276.989 262.819L271.825 246.928H281.058L284.46 257.398L310.964 238.142H310.949L323.034 229.361H337.987L287.316 266.176L297.433 297.314L285.348 288.533L279.845 271.597L279.84 271.6ZM304.066 182.383L285.062 208.539L292.157 213.694L311.161 187.538L304.066 182.383ZM219.845 213.695L200.842 187.54L207.937 182.385L226.94 208.54L219.845 213.695ZM310.121 268.972L340.869 278.963L338.159 287.303L307.411 277.313L310.121 268.972ZM260.388 311.477V343.807H251.618L251.618 311.477H260.388ZM173.847 287.305L204.595 277.314L201.884 268.973L171.137 278.964L173.847 287.305Z" fill="var(--flag-palette-yellow, #ffda44)"/>
</svg>

<svg xmlns="http://www.w3.org/2000/svg" width="512" height="512" fill="none"><path fill="var(--flag-palette-yellow, #ffda44)" d="M512 376H0V136h512z"/><path fill="var(--flag-palette-green, #6da544)" d="M512 168H0V0h512z"/><path fill="var(--flag-palette-bright-red, #d80027)" d="M512 512H0V344h512z"/><path fill="var(--flag-palette-blue, #0052b4)" d="M328 157a122.4 122.4 0 1 0-144 198 122.4 122.4 0 0 0 144-198"/><path fill="var(--flag-palette-yellow, #ffda44)" fill-rule="evenodd" d="M275.4 229.4 256 169.8l-4.6 14.2 4.6 14.2 10.1 31.2h-11l-2.8 8.7H296l12.1-8.7zm-24-17-4.6-14.2-10.2 31.2H174l12.1 8.7h47.7l-3.4 10.5 7.5 5.4 5.1-15.9 2.9-8.7zm-26.7 53.8-26.5-19.3h15l14.3 10.5 7.5 5.4 13.5 9.8-7.4 5.5-9-6.5-10 31.2-4.7 14.2-12 8.7zm23.8 17.3 7.5-5.4 13.5-9.9 2.9 8.8-9 6.5 26.6 19.3 12 8.7 4.7 14.2L256 289l-26.5 19.3 4.6-14.2zm31.3-11.9-2.8-8.8-5.2-15.9h9.3l3.4 10.5 26.5-19.3 12-8.7h15l-50.7 36.8 10.1 31.1-12-8.8zm24.3-89.2-19 26.1 7 5.2 19-26.2zm-84.3 31.3-19-26.2 7.1-5.1 19 26.1zm90.3 55.3 30.8 10-2.7 8.3-30.8-10zm-49.7 42.5v32.3h-8.8v-32.3zm-86.6-24.2 30.8-10-2.7-8.3-30.8 10z" clip-rule="evenodd"/></svg>
